X: 3381
T: The LASS OF RICHMOND HILL
%R: march
B: James Kerr "Merry Melodies" v.3 p.42 #381
Z: 2016 John Chambers <jc:trillian.mit.edu>
M: 2/4
L: 1/16
K: D
uA2 |\
A2d2d2d2 | edcd e2g2 | f2d2B2e2 | (d4 c2)A2 |\
A2d2d2d2 | edcd e2d2 | c2A2B2^G2 | A6 :|\
d2 |\
c2A2A2d2 | c2A2A2d2 | c2e2g2f2 | (f4 e2)d2 |\
c2A2A2d2 | c2A2a2d2 | c2d2e2c2 d6 d2 |
cAAA A2d2 | cAAA A2d2 | c2e2g2f2 | (f4 e2)d2 |\
cAAA A2d2 | cAAA a2d2 | c2d2e2c2 | d6 |:\
A2 |\
A2d2d2f2 | f6 d2 | c2e2e2g2 | g6 e2 |\
f3ed2c2 | d2B2A2G2 | F2d2E2d2 | d6 :|

%%sep 1 1 500
%%sep 1 1 500

